X:1859
T:Bourrée
C:MCTB 1/50
M:3/8
L:1/16
K:C
e4f2|efgag2|e3def|d2c4|\
e4f2|efgag2|e3def|d6:|
|:e4c2|ABc2A2|d2e2f2|e2c4|\
e4c2|ABc2A2|d2e2d2|c6:|
%%newpage


